assets/images/parnter6.svg

<svg width="200" height="22" viewBox="0 0 200 22" fill="none" xmlns="http://www.w3.org/2000/svg">
<path d="M124.568 0.508423C124.974 0.508423 125.313 0.779581 125.381 1.15242L126.26 5.18588H113.029C112.555 5.18588 112.183 5.55873 112.183 6.03325V8.84651H125.008V12.9478H112.183V15.761C112.183 16.2355 112.555 16.6084 113.029 16.6084H126.26L125.381 20.6418C125.313 21.0147 124.974 21.2858 124.568 21.2858H104.67C102.775 21.2858 101.252 19.7606 101.252 17.8625V3.93178C101.252 2.03368 102.775 0.508423 104.67 0.508423H124.568Z" fill="#3278BE"/>
<path d="M65.9229 0.508423C66.3289 0.508423 66.6674 0.779581 66.735 1.15242L67.6149 5.18588H54.3831C53.9093 5.18588 53.5371 5.55873 53.5371 6.03325V8.84651H66.3628V12.9478H53.5371V15.761C53.5371 16.2355 53.9093 16.6084 54.3831 16.6084H67.6149L66.735 20.6418C66.6674 21.0147 66.3289 21.2858 65.9229 21.2858H46.0244C44.1293 21.2858 42.6064 19.7606 42.6064 17.8625V3.93178C42.6064 2.03368 44.1293 0.508423 46.0244 0.508423H65.9229Z" fill="#3278BE"/>
<path d="M181.252 5.05031L177.867 13.0155H184.839L181.252 5.05031ZM178.95 0.508423H189.779C190.152 0.508423 190.422 0.745687 190.558 1.05074L199.999 21.4214H188.629L186.7 17.1507H176.108L174.28 21.4214H169.407L178.104 1.05074C178.274 0.745687 178.578 0.508423 178.95 0.508423Z" fill="#3278BE"/>
<path d="M39.0185 0.508423H28.0879V21.3875H39.0185V0.508423Z" fill="#3278BE"/>
<path d="M24.67 1.11852L24.0609 5.42314C21.5228 4.98251 18.714 4.71136 15.7022 4.71136C10.9306 4.71136 9.81387 5.15199 9.81387 6.71114C9.81387 7.76187 10.6599 8.27029 12.0812 8.40587L18.6464 8.98208C22.4704 9.32103 25.5838 11.0835 25.5838 15.0831C25.5838 18.9132 22.5381 20.8113 20.6768 21.2519C19.0863 21.6248 16.4467 21.9298 12.3858 21.9298C8.08799 21.9298 3.65482 21.5231 0.338409 20.8113L0.947546 16.5067C3.48562 16.9473 6.86971 17.2185 9.88155 17.2185C14.3486 17.2185 16.1421 16.9812 16.1421 15.0492C16.1421 13.8968 15.1269 13.4562 13.7733 13.3545L6.63282 12.7105C2.84264 12.3715 0 10.2023 0 6.74503C0 1.79642 4.16244 0 13.0288 0C17.3266 0 21.3198 0.406737 24.67 1.11852Z" fill="#3278BE"/>
<path d="M98.0041 8.91429V20.5063C94.4847 21.2858 89.5439 21.9298 84.4339 21.9298C71.4052 21.9298 69.4424 16.9473 69.4424 10.948C69.4424 6.16883 71.3036 0 84.4339 0C88.7317 0 93.1649 0.406737 96.4813 1.11852L95.8722 5.42314C93.3341 4.98251 90.4238 4.71136 87.4458 4.71136C87.4458 4.71136 79.9669 4.10125 79.9669 11.0497C79.9669 17.3202 83.6217 17.6591 85.3476 17.6591C86.1598 17.6591 87.1412 17.5235 87.9534 17.4219V12.3377H85.3476V8.91429H98.0041Z" fill="#3278BE"/>
<path d="M167.749 0.508423H156.818V21.3875H167.749V0.508423Z" fill="#3278BE"/>
<path d="M153.198 0.508423V20.0656C153.198 20.8113 152.555 21.3875 151.844 21.3875H140.372L133.536 7.08398V21.3875H128.934V1.89811C128.934 1.15242 129.543 0.54232 130.287 0.54232H141.793L148.595 14.7781V0.54232C148.595 0.508425 153.198 0.508423 153.198 0.508423Z" fill="#3278BE"/>
</svg>

<svg width="200" height="22" fill="none" xmlns="http://www.w3.org/2000/svg"><path d="M124.568.508c.406 0 .745.272.813.644l.879 4.034h-13.231a.838.838 0 0 0-.846.847v2.814h12.825v4.1h-12.825v2.814c0 .474.372.847.846.847h13.231l-.879 4.034c-.068.373-.407.644-.813.644H104.67a3.411 3.411 0 0 1-3.418-3.424V3.933A3.411 3.411 0 0 1 104.67.508h19.898ZM65.923.508c.406 0 .744.272.812.644l.88 4.034H54.383a.838.838 0 0 0-.846.847v2.814h12.826v4.1H53.537v2.814c0 .474.372.847.846.847h13.232l-.88 4.034c-.068.373-.406.644-.812.644H46.024a3.411 3.411 0 0 1-3.418-3.424V3.933A3.411 3.411 0 0 1 46.024.508h19.899ZM181.252 5.05l-3.385 7.965h6.972l-3.587-7.965ZM178.95.508h10.829c.373 0 .643.238.779.543l9.441 20.37h-11.37l-1.929-4.27h-10.592l-1.828 4.27h-4.873l8.697-20.37c.17-.305.474-.543.846-.543ZM39.019.508H28.088v20.88h10.93V.508ZM24.67 1.119l-.61 4.304a48.966 48.966 0 0 0-8.358-.712c-4.771 0-5.888.441-5.888 2 0 1.05.846 1.56 2.267 1.695l6.565.576c3.824.339 6.938 2.102 6.938 6.101 0 3.83-3.046 5.728-4.907 6.169-1.59.373-4.23.678-8.291.678-4.298 0-8.731-.407-12.048-1.119l.61-4.304c2.538.44 5.922.711 8.934.711 4.467 0 6.26-.237 6.26-2.169 0-1.152-1.015-1.593-2.369-1.694l-7.14-.645C2.843 12.371 0 10.203 0 6.745 0 1.796 4.162 0 13.029 0c4.298 0 8.29.407 11.641 1.119ZM98.004 8.914v11.592c-3.52.78-8.46 1.424-13.57 1.424-13.029 0-14.992-4.983-14.992-10.982C69.442 6.168 71.304 0 84.434 0c4.298 0 8.73.407 12.047 1.119l-.609 4.304a50.094 50.094 0 0 0-8.426-.712s-7.48-.61-7.48 6.339c0 6.27 3.656 6.61 5.382 6.61.812 0 1.793-.137 2.605-.238v-5.084h-2.605V8.914h12.656ZM167.749.508h-10.931v20.88h10.931V.508ZM153.198.508v19.558c0 .745-.643 1.322-1.354 1.322h-11.472l-6.836-14.304v14.303h-4.602V1.898c0-.746.609-1.356 1.353-1.356h11.506l6.802 14.236V.542c0-.034 4.603-.034 4.603-.034Z" fill="#3278BE"/></svg>
